build/img/adv-icon-3.svg

<svg width="47" height="46" viewBox="0 0 47 46" fill="none" xmlns="http://www.w3.org/2000/svg">
<path d="M5.10968 31.5029H7.56146C7.9597 31.5029 8.28259 31.174 8.28259 30.7683C8.28259 30.3626 7.9597 30.0337 7.56146 30.0337H5.10968C4.71144 30.0337 4.38855 30.3626 4.38855 30.7683C4.38855 31.174 4.71144 31.5029 5.10968 31.5029Z" fill="black"/>
<path d="M7.56146 34.4404H5.10968C4.71144 34.4404 4.38855 34.7692 4.38855 35.1748C4.38855 35.5804 4.71144 35.9092 5.10968 35.9092H7.56146C7.9597 35.9092 8.28259 35.5804 8.28259 35.1748C8.28259 34.7692 7.9597 34.4404 7.56146 34.4404Z" fill="black"/>
<path d="M7.56146 38.939H5.10968C4.71144 38.939 4.38855 39.2679 4.38855 39.6736C4.38855 40.0793 4.71144 40.4082 5.10968 40.4082H7.56146C7.9597 40.4082 8.28259 40.0793 8.28259 39.6736C8.28259 39.2679 7.9597 38.939 7.56146 38.939Z" fill="black"/>
<path d="M15.0705 21.2573C15.4687 21.2573 15.7916 20.9285 15.7916 20.5229V17.669C15.7916 17.2634 15.4687 16.9346 15.0705 16.9346C14.6723 16.9346 14.3494 17.2634 14.3494 17.669V20.5229C14.3494 20.9285 14.6723 21.2573 15.0705 21.2573Z" fill="black"/>
<path d="M19.4872 21.2573C19.8855 21.2573 20.2084 20.9285 20.2084 20.5229V17.669C20.2084 17.2634 19.8855 16.9346 19.4872 16.9346C19.089 16.9346 18.7661 17.2634 18.7661 17.669V20.5229C18.7661 20.9285 19.089 21.2573 19.4872 21.2573Z" fill="black"/>
<path d="M15.0705 30.1753C15.4687 30.1753 15.7916 29.8464 15.7916 29.4408V26.587C15.7916 26.1814 15.4687 25.8525 15.0705 25.8525C14.6723 25.8525 14.3494 26.1814 14.3494 26.587V29.4408C14.3494 29.8464 14.6723 30.1753 15.0705 30.1753Z" fill="black"/>
<path d="M19.4872 30.1753C19.8855 30.1753 20.2084 29.8464 20.2084 29.4408V26.587C20.2084 26.1814 19.8855 25.8525 19.4872 25.8525C19.089 25.8525 18.7661 26.1814 18.7661 26.587V29.4408C18.7661 29.8464 19.089 30.1753 19.4872 30.1753Z" fill="black"/>
<path d="M23.8141 30.1753C24.2124 30.1753 24.5353 29.8464 24.5353 29.4408V26.587C24.5353 26.1814 24.2124 25.8525 23.8141 25.8525C23.4159 25.8525 23.093 26.1814 23.093 26.587V29.4408C23.093 29.8464 23.4159 30.1753 23.8141 30.1753Z" fill="black"/>
<path d="M15.0705 39.0938C15.4687 39.0938 15.7916 38.7649 15.7916 38.3593V35.5054C15.7916 35.0998 15.4687 34.771 15.0705 34.771C14.6723 34.771 14.3494 35.0998 14.3494 35.5054V38.3593C14.3494 38.7649 14.6723 39.0938 15.0705 39.0938Z" fill="black"/>
<path d="M19.4872 39.0938C19.8855 39.0938 20.2084 38.7649 20.2084 38.3593V35.5054C20.2084 35.0998 19.8855 34.771 19.4872 34.771C19.089 34.771 18.7661 35.0998 18.7661 35.5054V38.3593C18.7661 38.7649 19.089 39.0938 19.4872 39.0938Z" fill="black"/>
<path d="M23.8141 39.0938C24.2124 39.0938 24.5353 38.7649 24.5353 38.3593V35.5054C24.5353 35.0998 24.2124 34.771 23.8141 34.771C23.4159 34.771 23.093 35.0998 23.093 35.5054V38.3593C23.093 38.7649 23.4159 39.0938 23.8141 39.0938Z" fill="black"/>
<path d="M34.159 4.22949C29.6438 4.23451 25.9849 7.96098 25.98 12.5593C25.98 12.9283 26.2486 13.2399 26.6082 13.2876C26.9673 13.335 27.3053 13.104 27.3983 12.7472C27.4747 12.4549 27.6325 12.0601 27.7529 11.9159C27.9733 11.7054 28.2635 11.587 28.5656 11.5849C28.8663 11.5824 29.1561 11.6993 29.374 11.9105C29.5864 12.1364 29.7061 12.4363 29.7089 12.749C29.7089 13.1549 30.0318 13.4834 30.43 13.4834C30.8283 13.4834 31.1512 13.1549 31.1512 12.749C31.1445 12.4384 31.2631 12.1382 31.4786 11.9184C31.6945 11.6989 31.9892 11.5781 32.2941 11.5849C32.5984 11.5824 32.8917 11.6989 33.1135 11.9105C33.3297 12.135 33.4533 12.4348 33.4593 12.749V18.449C33.4597 18.5361 33.4251 18.6193 33.3639 18.6799C33.3023 18.7405 33.2192 18.7728 33.1339 18.7692C33.0491 18.7724 32.9667 18.7402 32.9061 18.6792C32.8456 18.6186 32.8121 18.5354 32.8139 18.449C32.8093 18.0455 32.4868 17.7206 32.0906 17.7206C31.6941 17.7206 31.372 18.0455 31.3674 18.449C31.3674 19.4431 32.1586 20.2485 33.1346 20.2485C34.1104 20.2485 34.9016 19.4431 34.9016 18.449V12.749C34.8903 12.4398 35.0047 12.1397 35.2181 11.9191C35.4315 11.6986 35.7245 11.5777 36.0283 11.5849C36.3284 11.5824 36.6174 11.6993 36.834 11.9105C37.046 12.1364 37.1653 12.4366 37.1674 12.749C37.1674 13.1546 37.49 13.4831 37.8882 13.4831C38.2861 13.4831 38.6087 13.1546 38.6087 12.749C38.602 12.4384 38.7203 12.1382 38.9361 11.9184C39.152 11.6986 39.4467 11.5781 39.7516 11.5849C40.0516 11.5824 40.3411 11.6986 40.5587 11.9091C40.6795 12.0475 40.8411 12.4506 40.9193 12.7461C41.0112 13.1033 41.3495 13.3353 41.7091 13.288C42.0686 13.2403 42.3376 12.9286 42.3376 12.5593C42.3327 7.96098 38.6738 4.23451 34.159 4.22949ZM39.752 10.116C39.0738 10.1192 38.4224 10.3867 37.9319 10.864C37.9213 10.8741 37.9111 10.8845 37.9009 10.8956L37.8875 10.9103L37.8741 10.8956C37.8692 10.8899 37.8639 10.8848 37.859 10.8795C37.3696 10.3889 36.7097 10.1145 36.0231 10.116C35.3449 10.1192 34.6935 10.3867 34.2033 10.864C34.1924 10.8741 34.1822 10.8845 34.1723 10.8956L34.159 10.9103L34.1452 10.8956C34.1403 10.8902 34.135 10.8848 34.1301 10.8795C33.6406 10.3889 32.9811 10.1145 32.2941 10.116C31.616 10.1192 30.9649 10.3867 30.4744 10.864C30.4638 10.8741 30.4533 10.8845 30.4434 10.8956L30.43 10.9103L30.4163 10.8956C30.4114 10.8899 30.4064 10.8848 30.4012 10.8795C29.7226 10.1999 28.7349 9.94991 27.8233 10.2268C28.7878 7.50947 31.3205 5.69878 34.1576 5.69842C36.9949 5.6977 39.528 7.50732 40.4939 10.2243C40.2527 10.1525 40.003 10.116 39.752 10.116Z" fill="black"/>
<path d="M34.1589 0C28.0888 0.000717198 22.9747 4.6169 22.2447 10.7544H20.4789V4.20735C20.4789 3.80175 20.156 3.47289 19.7577 3.47289C19.3595 3.47289 19.0366 3.80175 19.0366 4.20735V10.7544H12.6481C11.2474 10.7676 10.1175 11.9249 10.1126 13.3515V25.7189H3.45368C2.06176 25.7189 0.918091 26.8278 0.918091 28.2451V45.182C0.923373 45.5902 1.25014 45.9176 1.65085 45.9165H37.8593C38.2611 45.9179 38.5893 45.5912 38.5974 45.182V25.8373C38.5942 25.0956 38.2773 24.3917 37.7276 23.9054C42.7421 22.3077 46.1577 17.5789 46.1622 12.2276C46.1622 5.48871 40.7752 0 34.1589 0ZM12.6481 12.2233H22.1599C22.15 13.9644 22.5106 15.6872 23.2166 17.2727C23.1416 17.391 23.099 17.5276 23.093 17.6686V20.5229C23.093 20.9285 23.4159 21.2573 23.8141 21.2573C24.2124 21.2573 24.5352 20.9285 24.5352 20.5229V19.5721C25.3465 20.5727 26.1578 21.4549 27.2395 22.1836V44.4476H11.5548V13.3515C11.5587 12.7357 12.0436 12.2355 12.6481 12.2233ZM2.36036 28.2451C2.36036 27.6379 2.8572 27.1878 3.45368 27.1878H10.1126V44.4476H2.36036V28.2451ZM37.1551 44.4476H28.6818V40.1326H33.3135C33.7117 40.1326 34.0346 39.8038 34.0346 39.3982C34.0346 38.9926 33.7117 38.6637 33.3135 38.6637H28.6818V35.6341H33.3135C33.7117 35.6341 34.0346 35.3052 34.0346 34.8996C34.0346 34.494 33.7117 34.1652 33.3135 34.1652H28.6818V31.2274H33.3135C33.7117 31.2274 34.0346 30.8985 34.0346 30.4929C34.0346 30.0873 33.7117 29.7584 33.3135 29.7584H28.6818V23.0841C29.7635 23.6884 31.0508 24.0987 32.3684 24.3027C32.4804 24.5545 32.7283 24.7141 32.9994 24.7094H36.0565C36.6618 24.7212 37.1484 25.2208 37.1551 25.8373V44.4476ZM34.1589 22.9859C28.3282 22.9859 23.6018 18.1721 23.6018 12.234C23.6018 6.29596 28.3282 1.48183 34.1586 1.48183C39.9889 1.48183 44.7154 6.29561 44.7154 12.234C44.709 18.1692 39.9865 22.979 34.1589 22.9859Z" fill="black"/>
</svg>

<svg width="47" height="46" fill="none" xmlns="http://www.w3.org/2000/svg"><path d="M5.11 31.503h2.45a.728.728 0 00.722-.735.728.728 0 00-.722-.734H5.11a.728.728 0 00-.721.734c0 .406.322.735.72.735zm2.451 2.937H5.11a.728.728 0 00-.721.735c0 .405.322.734.72.734h2.452a.728.728 0 00.722-.734.728.728 0 00-.722-.735zm0 4.499H5.11a.728.728 0 00-.721.735c0 .405.322.734.72.734h2.452a.728.728 0 00.722-.734.728.728 0 00-.722-.735zm7.509-17.682a.728.728 0 00.722-.734v-2.854a.728.728 0 00-.722-.734.728.728 0 00-.72.734v2.854c0 .405.322.734.72.734zm4.417 0a.728.728 0 00.721-.734v-2.854a.728.728 0 00-.72-.734.728.728 0 00-.722.734v2.854c0 .405.323.734.721.734zm-4.417 8.918a.728.728 0 00.722-.734v-2.854a.728.728 0 00-.722-.735.728.728 0 00-.72.735v2.854c0 .405.322.734.72.734zm4.417 0a.728.728 0 00.721-.734v-2.854a.728.728 0 00-.72-.735.728.728 0 00-.722.735v2.854c0 .405.323.734.721.734zm4.327 0a.728.728 0 00.721-.734v-2.854a.728.728 0 00-.72-.735.728.728 0 00-.722.735v2.854c0 .405.323.734.721.734zm-8.744 8.919a.728.728 0 00.722-.735v-2.854a.728.728 0 00-.722-.734.728.728 0 00-.72.734v2.854c0 .406.322.735.72.735zm4.417 0a.728.728 0 00.721-.735v-2.854a.728.728 0 00-.72-.734.728.728 0 00-.722.734v2.854c0 .406.323.735.721.735zm4.327 0a.728.728 0 00.721-.735v-2.854a.728.728 0 00-.72-.734.728.728 0 00-.722.734v2.854c0 .406.323.735.721.735zM34.159 4.23c-4.515.005-8.174 3.731-8.179 8.33 0 .368.269.68.628.728a.722.722 0 00.79-.54c.077-.293.235-.688.355-.832.22-.21.51-.329.813-.331.3-.003.59.114.808.325.212.226.332.526.335.839 0 .406.323.734.721.734a.728.728 0 00.721-.734c-.006-.31.112-.61.328-.83.216-.22.51-.34.815-.334.304-.003.598.114.82.325.216.225.34.525.345.839v5.7c0 .087-.034.17-.095.23a.31.31 0 01-.23.09.304.304 0 01-.228-.09.317.317 0 01-.092-.23.73.73 0 00-.723-.728.73.73 0 00-.724.728c0 .994.792 1.8 1.768 1.8.975 0 1.767-.806 1.767-1.8v-5.7a1.13 1.13 0 01.316-.83c.213-.22.506-.341.81-.334.3-.003.59.114.806.325.212.226.331.527.333.839 0 .406.323.734.721.734.398 0 .72-.328.72-.734a1.15 1.15 0 01.328-.83c.216-.22.51-.34.816-.334.3-.003.59.114.807.324.12.138.282.542.36.837.092.357.43.59.79.542a.73.73 0 00.629-.729c-.005-4.598-3.664-8.324-8.179-8.33zm5.593 5.886a2.627 2.627 0 00-1.851.78l-.014.014-.013-.014-.015-.017a2.585 2.585 0 00-3.687.017l-.013.014-.014-.014-.015-.017a2.585 2.585 0 00-3.687.017l-.013.014-.014-.014a2.58 2.58 0 00-2.593-.669c.965-2.718 3.497-4.528 6.335-4.529 2.837 0 5.37 1.81 6.336 4.526a2.6 2.6 0 00-.742-.108z" fill="#000"/><path d="M34.159 0c-6.07 0-11.184 4.617-11.914 10.754h-1.766V4.207a.728.728 0 00-.721-.734.728.728 0 00-.721.734v6.547h-6.389c-1.4.014-2.53 1.17-2.535 2.598v12.367h-6.66a2.522 2.522 0 00-2.535 2.526v16.937a.737.737 0 00.733.734h36.208a.742.742 0 00.738-.734V25.837a2.594 2.594 0 00-.87-1.932c5.015-1.597 8.43-6.326 8.435-11.677C46.162 5.488 40.775 0 34.16 0zm-21.51 12.223h9.51a12.267 12.267 0 001.058 5.05.803.803 0 00-.124.396v2.854c0 .405.323.734.721.734a.728.728 0 00.721-.734v-.95c.811 1 1.623 1.882 2.704 2.61v22.265H11.556V13.352a1.126 1.126 0 011.093-1.129zM2.36 28.245c0-.607.497-1.057 1.094-1.057h6.659v17.26H2.36V28.245zm34.795 16.203h-8.473v-4.315h4.631a.728.728 0 00.722-.735.728.728 0 00-.721-.734h-4.632v-3.03h4.631a.728.728 0 00.722-.734.728.728 0 00-.721-.735h-4.632v-2.938h4.631a.728.728 0 00.722-.734.728.728 0 00-.721-.735h-4.632v-6.674c1.082.604 2.369 1.015 3.686 1.219.112.252.36.411.631.406h3.057a1.13 1.13 0 011.1 1.128v18.61zM34.16 22.986c-5.83 0-10.557-4.814-10.557-10.752 0-5.938 4.726-10.752 10.557-10.752 5.83 0 10.556 4.814 10.556 10.752-.006 5.935-4.729 10.745-10.556 10.752z" fill="#000"/></svg>
